icons/mobile/24/svg/link-24.svg

<svg width="24" height="24" viewBox="0 0 24 24" fill="none" xmlns="http://www.w3.org/2000/svg">
<path d="M5.42066 10.6583C6.56866 9.51034 8.43673 9.51134 9.58473 10.6583L8.3484 11.8947C7.88344 11.4297 7.12496 11.4288 6.65895 11.8947L4.95875 13.5949C4.55182 14.0019 4.49219 14.6434 4.81617 15.1173C5.34112 15.8832 5.93953 16.6049 6.59645 17.2619C7.25341 17.9188 7.97403 18.5172 8.74098 19.0421C9.21497 19.3661 9.85545 19.3056 10.2634 18.8986L11.9627 17.1994C12.4277 16.7344 12.4277 15.9759 11.9627 15.5099L13.2 14.2726C14.3479 15.4206 14.3478 17.2886 13.2 18.4367L11.4998 20.1369C10.4968 21.1398 8.92067 21.2864 7.7527 20.4874C6.89675 19.9025 6.0921 19.2331 5.35914 18.5001C4.62614 17.7671 3.95684 16.9606 3.37184 16.1056C2.57211 14.9376 2.71952 13.3604 3.72242 12.3585L3.72145 12.3576L5.42066 10.6583Z" fill="black"/>
<path d="M14.7263 7.89271C15.0681 7.55129 15.623 7.5511 15.9646 7.89271C16.3061 8.23434 16.306 8.7893 15.9646 9.131L10.1316 14.964C9.78993 15.3057 9.23504 15.3056 8.89332 14.964C8.55161 14.6223 8.55162 14.0674 8.89332 13.7257L14.7263 7.89271Z" fill="black"/>
<path d="M13.3582 2.72084C14.3612 1.71796 15.9373 1.57226 17.1052 2.37123C17.961 2.9561 18.766 3.62476 19.4988 4.35756C20.2318 5.09056 20.9011 5.89709 21.4861 6.75209C22.286 7.92003 22.1394 9.49717 21.1365 10.4992L19.4363 12.1994C18.2884 13.3472 16.4202 13.3461 15.2722 12.1994L16.5095 10.962C16.9745 11.4268 17.7321 11.4279 18.198 10.962L19.8982 9.26185C20.305 8.85488 20.3647 8.2143 20.0408 7.74037C19.5158 6.97442 18.9184 6.25183 18.2615 5.59486C17.6045 4.93786 16.883 4.33959 16.116 3.81459C15.6421 3.49083 15.0024 3.55135 14.5945 3.95814L12.8943 5.65834C12.4294 6.12334 12.4293 6.88083 12.8943 7.34682L11.657 8.58412C10.509 7.43614 10.5091 5.56806 11.657 4.42006L11.658 4.42103L13.3582 2.72084Z" fill="black"/>
</svg>

<!-- This Source Code Form is subject to the terms of the Mozilla Public
   - License, v. 2.0. If a copy of the MPL was not distributed with this
   - file, You can obtain one at http://mozilla.org/MPL/2.0/. -->
<svg xmlns="http://www.w3.org/2000/svg" width="24" height="24" fill="none" viewBox="0 0 24 24">
    <path fill="#000" d="M5.42 10.658a2.95 2.95 0 0 1 4.165 0l-1.237 1.237a1.197 1.197 0 0 0-1.69 0l-1.7 1.7a1.2 1.2 0 0 0-.142 1.522 15.1 15.1 0 0 0 3.925 3.925 1.2 1.2 0 0 0 1.522-.143l1.7-1.7a1.197 1.197 0 0 0 0-1.69l1.237-1.236a2.95 2.95 0 0 1 0 4.164l-1.7 1.7a2.95 2.95 0 0 1-3.747.35 16.8 16.8 0 0 1-4.381-4.381 2.95 2.95 0 0 1 .35-3.748z" />
    <path fill="#000" d="M14.726 7.893a.876.876 0 0 1 1.239 1.238l-5.833 5.833a.876.876 0 0 1-1.239-1.238z" />
    <path fill="#000" d="M13.358 2.72a2.95 2.95 0 0 1 3.747-.349 16.8 16.8 0 0 1 4.381 4.381 2.95 2.95 0 0 1-.35 3.747l-1.7 1.7a2.95 2.95 0 0 1-4.164 0l1.237-1.237a1.196 1.196 0 0 0 1.689 0l1.7-1.7a1.2 1.2 0 0 0 .143-1.522 15 15 0 0 0-1.78-2.145 15 15 0 0 0-2.145-1.78 1.2 1.2 0 0 0-1.521.143l-1.7 1.7a1.196 1.196 0 0 0 0 1.689l-1.238 1.237a2.95 2.95 0 0 1 0-4.164l.001.001z" />
</svg>
